frontend/public/svg/food/fork.svg

<svg width="46" height="160" viewBox="0 0 46 160" fill="none" xmlns="http://www.w3.org/2000/svg">
<g clip-path="url(#clip0)">
<path d="M23.2615 53.4615C23.5727 49.9061 24.0891 46.3553 24.158 42.7953C24.3883 30.8998 24.4481 19.0004 24.6082 7.10294C24.617 5.87183 24.7636 4.64571 25.0453 3.44724C25.1733 2.77297 25.5352 2.16541 26.0671 1.73172C26.599 1.29804 27.2668 1.06603 27.9531 1.07651C28.6393 1.05618 29.3114 1.27253 29.857 1.68926C30.4026 2.106 30.7883 2.69779 30.9492 3.3652C31.261 4.5574 31.3894 5.79002 31.3299 7.02089C31.1087 20.042 30.9188 33.0643 30.546 46.0808C30.4535 49.2969 29.7298 52.4999 29.225 56.2358C30.4514 55.2263 31.379 53.9011 31.9081 52.4034C33.5657 48.4635 34.4706 44.248 34.576 39.975C34.874 30.101 35.0353 20.2193 35.3051 10.3466C35.3298 8.55528 35.5221 6.77009 35.8794 5.01453C36.0376 4.17596 36.4685 3.41311 37.1049 2.84458C37.7413 2.27605 38.5479 1.93367 39.3989 1.87065C40.2472 1.86503 41.0751 2.12897 41.7637 2.62441C42.4523 3.11986 42.9657 3.82116 43.2299 4.62724C43.5954 5.56842 43.8229 6.55752 43.9058 7.56376C44.6816 18.9998 45.1805 30.4613 43.7917 41.8619C43.1953 46.1867 42.0563 50.4191 40.4017 54.4591C37.9391 60.7055 34.294 63.695 26.1593 67.3354C26.3339 70.7805 26.4999 74.3385 26.6981 77.8946C27.2921 88.541 28.06 99.1796 28.461 109.833C28.9972 124.079 29.2658 138.336 29.6058 152.589C29.6051 153.816 29.4578 155.04 29.1667 156.232C28.7801 157.977 27.4601 158.845 25.81 159.113C24.3313 159.353 22.4941 158.102 21.973 156.386C21.6179 155.09 21.4401 153.753 21.4441 152.409C21.2735 144.327 21.2564 136.241 21.0083 128.162C20.7123 118.514 20.155 108.874 19.8597 99.2255C19.5781 90.1359 19.4791 81.041 19.3078 71.9481C19.2829 70.6204 19.3043 69.2919 19.3043 67.9084C18.3053 67.5566 17.598 67.2579 16.8642 67.0545C9.50274 65.0346 4.74029 60.248 2.89139 52.9685C1.78787 48.5051 1.14036 43.9412 0.958586 39.347C0.544437 30.0447 0.229907 20.7167 1.40213 11.4295C1.62725 9.64887 1.83393 7.86042 2.18441 6.10271C2.74033 3.31131 4.02232 2.08783 6.02021 2.24273C8.04107 2.39959 9.02085 3.76678 9.01954 6.70586C9.01954 11.1972 8.91978 15.6879 8.88237 20.1792C8.80597 29.2745 9.49165 38.3602 10.9322 47.3411C11.5229 51.0435 12.5481 54.5864 15.5922 57.1396C16.1687 57.5507 16.7664 57.9313 17.3827 58.2796C13.2393 49.3311 13.6539 40.3149 13.646 31.3855C13.6388 23.6407 13.9171 15.8992 14.0792 8.15636C14.0879 7.25902 14.1432 6.36291 14.2452 5.47138C14.4159 4.1167 15.088 3.0731 16.5536 3.01732C18.2404 2.95168 18.851 4.14349 19.0774 5.60581C19.1441 6.04966 19.1859 6.4969 19.2028 6.94541C19.6353 18.048 20.0179 29.1533 20.5154 40.2527C20.7156 44.7249 21.1506 49.1886 22.5335 53.4844L23.2615 53.4615Z" fill="black"/>
</g>
<defs>
<clipPath id="clip0">
<rect width="44.631" height="158.834" fill="white" transform="translate(0.540283 0.463379)"/>
</clipPath>
</defs>
</svg>

<svg xmlns="http://www.w3.org/2000/svg" width="46" height="160" fill="none" viewBox="0 0 46 160"><g clip-path="url(#a)"><path fill="#000" d="M23.262 53.462c.31-3.556.827-7.107.896-10.667.23-11.895.29-23.795.45-35.692.009-1.231.156-2.457.437-3.656a2.915 2.915 0 0 1 2.908-2.37 2.99 2.99 0 0 1 2.996 2.288 12.1 12.1 0 0 1 .38 3.656c-.22 13.021-.41 26.043-.783 39.06-.093 3.216-.816 6.419-1.321 10.155a8.73 8.73 0 0 0 2.683-3.833 34.2 34.2 0 0 0 2.668-12.428c.298-9.874.46-19.756.73-29.628.024-1.792.216-3.577.573-5.332A3.87 3.87 0 0 1 39.4 1.87a4 4 0 0 1 3.83 2.756c.366.941.594 1.93.677 2.937.776 11.436 1.275 22.897-.114 34.298a52 52 0 0 1-3.39 12.597c-2.463 6.246-6.108 9.236-14.243 12.876.175 3.446.34 7.004.54 10.56.593 10.646 1.361 21.285 1.762 31.938.536 14.246.805 28.503 1.145 42.756 0 1.227-.148 2.451-.44 3.643-.386 1.745-1.706 2.613-3.356 2.881-1.479.24-3.316-1.011-3.837-2.727a15 15 0 0 1-.529-3.977c-.17-8.082-.188-16.168-.436-24.247-.296-9.648-.853-19.288-1.148-28.937-.282-9.09-.38-18.184-.552-27.277-.025-1.328-.004-2.656-.004-4.04-.999-.351-1.706-.65-2.44-.853-7.361-2.02-12.124-6.807-13.973-14.087A68 68 0 0 1 .96 39.348c-.415-9.302-.73-18.63.443-27.917.225-1.781.432-3.57.782-5.327.556-2.792 1.838-4.015 3.836-3.86 2.021.157 3 1.524 3 4.463 0 4.491-.1 8.982-.138 13.473-.076 9.096.61 18.181 2.05 27.162.59 3.703 1.616 7.245 4.66 9.799q.866.616 1.79 1.14c-4.143-8.949-3.728-17.965-3.736-26.894-.007-7.745.271-15.487.433-23.23q.013-1.346.166-2.685c.17-1.354.843-2.398 2.309-2.454 1.686-.065 2.297 1.126 2.523 2.589q.1.665.126 1.34c.432 11.102.815 22.207 1.312 33.307.2 4.472.636 8.936 2.018 13.231z"/></g><defs><clipPath id="a"><path fill="#fff" d="M.54.463h44.631v158.834H.541z"/></clipPath></defs></svg>
